-- maquinitas-tidal

-- install maquinitas-tidal

-- boot supercollider and tidalcycles

-- test tidalcycles
d1 $ sound "[bd bd bd bd]"
d1 silence

-- import maquinitas-tidal modules
import qualified RolandSH01A
import qualified RolandTR08

-- print value to console
show RolandSH01A.modulation
show RolandTR08.bdTune
