-- import maquinitas modules
--import qualified Korg
import Korg.VolcaBeats

-- test installation
d1 $ Korg.VolcaBeats.midiNote "bd [sd*3] bd" # sound "midi" # midichan "9"

d2 $ Korg.VolcaBeats.ccn_num "aa" # sound "midi" # midichan "9"

d1 $ sound "bd sn sn sn"

mute 1

unmute 1